ukui-icon-theme/16x16/devices/kuaipan.svg

<?xml version="1.0" encoding="iso-8859-1"?>
<!-- Generator: Adobe Illustrator 21.0.0, SVG Export Plug-In . SVG Version: 6.00 Build 0)  -->
<svg version="1.1" id="&#x5176;&#x4ED6;" xmlns="http://www.w3.org/2000/svg" xmlns:xlink="http://www.w3.org/1999/xlink" x="0px"
	 y="0px" viewBox="0 0 16 16" style="enable-background:new 0 0 16 16;" xml:space="preserve">
<title>画板 26</title>
<g id="&#x5FEB;&#x76D8;">
	<g id="_16">
		<g id="g4">
			<g id="g6">
				<path id="path10" style="fill:#263238;" d="M0.5,12.39v2.27h15v-2.27H0.5z"/>
				<polygon style="fill:#4CAF50;" points="15.32,11.4 13.38,1.34 2.18,1.38 0.65,11.4 				"/>
				<polygon style="fill:#419E41;" points="15.32,11.4 13.38,1.34 9.46,1.34 7.16,11.4 				"/>
				<polygon style="fill:#455A64;" points="0.65,11.4 0.5,12.39 15.5,12.39 15.32,11.4 				"/>
				<polygon style="fill:#81C784;" points="3.1,11.4 3.6,1.38 2.71,1.38 1.2,11.4 				"/>
			</g>
			<g id="g12">
				
					<linearGradient id="path14_1_" gradientUnits="userSpaceOnUse" x1="-2180.76" y1="3822.22" x2="-2180.76" y2="3821.54" gradientTransform="matrix(1 0 0 1 2185.95 -3808.3101)">
					<stop  offset="0" style="stop-color:#455A64"/>
					<stop  offset="0.21" style="stop-color:#36474F"/>
					<stop  offset="1" style="stop-color:#000000"/>
				</linearGradient>
				<path id="path14" style="fill:url(#path14_1_);" d="M8.69,13.9h-7v-0.69h7V13.9z"/>
				
					<linearGradient id="path16_1_" gradientUnits="userSpaceOnUse" x1="-2173.0898" y1="3822.22" x2="-2173.0898" y2="3821.54" gradientTransform="matrix(1 0 0 1 2185.95 -3808.3101)">
					<stop  offset="0" style="stop-color:#81C784"/>
					<stop  offset="1" style="stop-color:#388E3C"/>
				</linearGradient>
				<path id="path16" style="fill:url(#path16_1_);" d="M12.31,13.9h1.1v-0.69h-1.1V13.9z"/>
			</g>
		</g>
		<path style="fill:#1B5E20;" d="M13.38,1.34l1.94,10.06l0.18,1v2.27h-15v-2.28l0.15-1l1.54-10h11.19 M13.79,0.89h-0.41L2.18,0.88
			H1.75L1.69,1.3l-1.54,10L0,12.3v2.84h16V12.3l-0.18-1L13.87,1.25l-0.08-0.41L13.79,0.89z"/>
		
			<linearGradient id="SVGID_1_" gradientUnits="userSpaceOnUse" x1="8.3474" y1="15.1" x2="8.3474" y2="7.01" gradientTransform="matrix(1 0 0 -1 0.0092 18.0027)">
			<stop  offset="0" style="stop-color:#FFFFFF"/>
			<stop  offset="1" style="stop-color:#D3EBD4"/>
		</linearGradient>
		<polygon style="fill:url(#SVGID_1_);" points="6.196,4.38 7.985,2.591 10.517,5.122 8.728,6.911 		"/>
		
			<linearGradient id="SVGID_2_" gradientUnits="userSpaceOnUse" x1="10.4298" y1="15.1" x2="10.4298" y2="7.01" gradientTransform="matrix(1 0 0 -1 0.004 17.9989)">
			<stop  offset="0" style="stop-color:#FFFFFF"/>
			<stop  offset="1" style="stop-color:#D3EBD4"/>
		</linearGradient>
		<polygon style="fill:url(#SVGID_2_);" points="8.907,7.699 11,5.606 11.961,6.568 9.868,8.661 		"/>
		
			<linearGradient id="SVGID_3_" gradientUnits="userSpaceOnUse" x1="7.4529" y1="15.1" x2="7.4529" y2="7.01" gradientTransform="matrix(1 0 0 -1 0.0034 17.9982)">
			<stop  offset="0" style="stop-color:#FFFFFF"/>
			<stop  offset="1" style="stop-color:#D3EBD4"/>
		</linearGradient>
		<polygon style="fill:url(#SVGID_3_);" points="5.689,8.243 6.926,7.006 9.224,9.304 7.987,10.541 		"/>
		
			<linearGradient id="SVGID_4_" gradientUnits="userSpaceOnUse" x1="5.4589" y1="15.1" x2="5.4589" y2="7.01" gradientTransform="matrix(1 0 0 -1 0.0021 17.9995)">
			<stop  offset="0" style="stop-color:#FFFFFF"/>
			<stop  offset="1" style="stop-color:#D3EBD4"/>
		</linearGradient>
		<polygon style="fill:url(#SVGID_4_);" points="4.004,6.561 5.68,4.886 6.918,6.123 5.242,7.799 		"/>
	</g>
</g>
</svg>

<svg id="其他" xmlns="http://www.w3.org/2000/svg" xmlns:xlink="http://www.w3.org/1999/xlink" viewBox="0 0 16 16"><defs><style>.cls-1{fill:#263238;}.cls-2{fill:#4caf50;}.cls-3{fill:#419e41;}.cls-4{fill:#455a64;}.cls-5{fill:#81c784;}.cls-6{fill:url(#linear-gradient);}.cls-7{fill:url(#未命名的渐变_19);}.cls-8{fill:#1b5e20;}.cls-9{fill:url(#未命名的渐变_29);}.cls-10{fill:url(#未命名的渐变_29-2);}.cls-11{fill:url(#未命名的渐变_29-3);}.cls-12{fill:url(#未命名的渐变_29-4);}</style><linearGradient id="linear-gradient" x1="-2180.75" y1="-3422.22" x2="-2180.75" y2="-3421.54" gradientTransform="matrix(1, 0, 0, -1, 2185.95, -3408.31)" gradientUnits="userSpaceOnUse"><stop offset="0" stop-color="#455a64"/><stop offset="0.21" stop-color="#36474f"/><stop offset="1"/></linearGradient><linearGradient id="未命名的渐变_19" x1="-2173.09" y1="-3422.22" x2="-2173.09" y2="-3421.54" gradientTransform="matrix(1, 0, 0, -1, 2185.95, -3408.31)" gradientUnits="userSpaceOnUse"><stop offset="0" stop-color="#81c784"/><stop offset="1" stop-color="#388e3c"/></linearGradient><linearGradient id="未命名的渐变_29" x1="8.35" y1="2.9" x2="8.35" y2="10.99" gradientTransform="translate(5.81 -4.51) rotate(45)" gradientUnits="userSpaceOnUse"><stop offset="0" stop-color="#fff"/><stop offset="1" stop-color="#d3ebd4"/></linearGradient><linearGradient id="未命名的渐变_29-2" x1="10.43" y1="2.9" x2="10.43" y2="10.99" gradientTransform="translate(8.1 -5.28) rotate(45)" xlink:href="#未命名的渐变_29"/><linearGradient id="未命名的渐变_29-3" x1="7.45" y1="2.9" x2="7.45" y2="10.99" gradientTransform="translate(8.39 -2.7) rotate(45)" xlink:href="#未命名的渐变_29"/><linearGradient id="未命名的渐变_29-4" x1="5.46" y1="2.9" x2="5.46" y2="10.99" gradientTransform="translate(6.09 -2) rotate(45)" xlink:href="#未命名的渐变_29"/></defs><title>画板 26</title><g id="快盘"><g id="_16" data-name="16"><g id="g4"><g id="g6"><path id="path10" class="cls-1" d="M.5,12.39v2.27h15V12.39Z"/><polygon class="cls-2" points="15.32 11.4 13.38 1.34 2.18 1.38 0.65 11.4 15.32 11.4"/><polygon class="cls-3" points="15.32 11.4 13.38 1.34 9.46 1.34 7.16 11.4 15.32 11.4"/><polygon class="cls-4" points="0.65 11.4 0.5 12.39 15.5 12.39 15.32 11.4 0.65 11.4"/><polygon class="cls-5" points="3.1 11.4 3.6 1.38 2.71 1.38 1.2 11.4 3.1 11.4"/></g><g id="g12"><path id="path14" class="cls-6" d="M8.69,13.9h-7v-.69h7Z"/><path id="path16" class="cls-7" d="M12.31,13.9h1.1v-.69h-1.1Z"/></g></g><path class="cls-8" d="M13.38,1.34,15.32,11.4l.18,1v2.27H.5V12.39l.15-1,1.54-10,11.19,0m.41-.5h-.41L2.18.88H1.75l-.06.42-1.54,10-.15,1v2.84H16V12.3l-.18-1L13.87,1.25,13.79.84Z"/><rect class="cls-9" x="7.09" y="2.96" width="2.53" height="3.58" transform="translate(-0.91 7.3) rotate(-45)"/><rect class="cls-10" x="8.95" y="6.46" width="2.96" height="1.36" transform="translate(-1.99 9.46) rotate(-45)"/><rect class="cls-11" x="6.58" y="7.15" width="1.75" height="3.25" transform="translate(-4.02 7.84) rotate(-45)"/><rect class="cls-12" x="4.28" y="5.47" width="2.37" height="1.75" transform="translate(-2.89 5.72) rotate(-45)"/></g></g></svg>
